packages/ffe-icons/icons/filled/sm/add_comment.svg

<svg xmlns="http://www.w3.org/2000/svg" height="20" viewBox="0 -960 960 960" width="20"><path d="m241.539-260.001-70.959 70.958q-15.194 15.194-34.886 6.882-19.693-8.312-19.693-29.687v-567.843q0-27.008 18.65-45.658 18.65-18.65 45.658-18.65h599.382q27.008 0 45.658 18.65 18.65 18.65 18.65 45.658v455.382q0 27.008-18.65 45.658-18.65 18.65-45.658 18.65H241.539Zm212.462-266V-420q0 11.05 7.418 18.524 7.418 7.475 18.384 7.475 10.966 0 18.581-7.475 7.615-7.474 7.615-18.524v-106.001H612q11.05 0 18.524-7.418 7.475-7.418 7.475-18.384 0-10.966-7.475-18.581-7.474-7.615-18.524-7.615H505.999V-684q0-11.05-7.418-18.524-7.418-7.475-18.384-7.475-10.966 0-18.581 7.475-7.615 7.474-7.615 18.524v106.001H348q-11.05 0-18.524 7.418-7.475 7.418-7.475 18.384 0 10.966 7.475 18.581 7.474 7.615 18.524 7.615h106.001Z"/></svg>

<svg xmlns="http://www.w3.org/2000/svg" height="20" viewBox="0 -960 960 960" width="20"><path d="m241.54-260-70.96 70.96q-15.19 15.19-34.89 6.88Q116-190.47 116-211.85v-567.84q0-27.01 18.65-45.66Q153.3-844 180.31-844h599.38q27.01 0 45.66 18.65Q844-806.7 844-779.69v455.38q0 27.01-18.65 45.66Q806.7-260 779.69-260H241.54ZM454-526v106q0 11.05 7.42 18.52 7.42 7.48 18.38 7.48 10.97 0 18.58-7.48Q506-408.95 506-420v-106h106q11.05 0 18.52-7.42 7.48-7.42 7.48-18.38 0-10.97-7.48-18.58Q623.05-578 612-578H506v-106q0-11.05-7.42-18.52-7.42-7.48-18.38-7.48-10.97 0-18.58 7.48Q454-695.05 454-684v106H348q-11.05 0-18.52 7.42-7.48 7.42-7.48 18.38 0 10.97 7.48 18.58Q336.95-526 348-526h106Z"/></svg>
